X: 1
T: Charlie Hunter's
C: Bobby MacLeod
R: Jig
M: 6/8
L: 1/8
K: Dmaj
|:DFA DGB|Adf a2g|fef Bcd|ecA GFE|
DFA DGB|Adf a2g|fef gec|1 edc d3:|2 edc dfg||
|:afd dcd|BGF G2F|EGB e2d|cec Aag|
fdA DFA|GBd g2g|faf gec|1 edc dfg:|2 edc d3||
